app/images/AnyDesk.svg

<svg width="313" height="58" viewBox="0 0 313 58" fill="none" xmlns="http://www.w3.org/2000/svg">
<g clip-path="url(#clip0_1827_8239)">
<path d="M48.5684 0L42.8301 5.73834L62.9664 25.7703L42.8301 45.9067L48.5684 51.5407L74.3388 25.7703L48.5684 0Z" fill="#EF443B"/>
<path d="M-0.207656 25.803L25.6133 51.6239L51.4342 25.803L25.6133 -0.0179913L-0.207656 25.803Z" fill="#EF443B"/>
<path d="M110.727 44.9626L107.91 35.8856H94.0341L91.2171 44.9626H82.4531L96.0165 6.56787H105.928L119.491 44.9626H110.727ZM106.032 29.1039C103.424 20.8615 102.068 16.1665 101.755 15.1232C101.442 14.0799 101.129 13.1409 101.024 12.5149C100.398 14.7059 98.8335 20.2355 96.1208 29.1039H106.032Z" fill="black"/>
<path d="M150.583 44.9625H142.654V27.9561C142.654 25.8695 142.237 24.3045 141.506 23.2611C140.776 22.2178 139.524 21.6961 137.959 21.6961C135.768 21.6961 134.099 22.4265 133.16 23.8871C132.221 25.3478 131.699 27.8518 131.699 31.2948V45.0668H123.77V15.8535H129.821L130.864 19.6095H131.282C132.221 18.1488 133.368 17.1055 134.933 16.3751C136.498 15.6448 138.272 15.3318 140.254 15.3318C143.697 15.3318 146.201 16.2708 147.975 18.0445C149.749 19.8181 150.583 22.5308 150.583 25.9738V44.9625Z" fill="black"/>
<path d="M153.877 15.7441H162.641L168.171 32.2288C168.692 33.6895 169.005 35.3588 169.11 37.3411H169.318C169.527 35.5675 169.84 33.8981 170.466 32.2288L175.891 15.7441H184.447L172.031 48.7135C170.883 51.7392 169.318 54.0345 167.232 55.5995C165.145 57.1645 162.641 57.8948 159.824 57.8948C158.468 57.8948 157.111 57.7905 155.755 57.4775V51.1132C156.694 51.3218 157.737 51.4262 158.885 51.4262C160.346 51.4262 161.493 51.0088 162.537 50.1742C163.58 49.3395 164.415 47.9832 165.041 46.3138L165.562 44.8532L153.877 15.7441Z" fill="black"/>
<path d="M220.674 25.4481C220.674 31.7081 218.901 36.5075 215.353 39.9505C211.806 43.3935 206.589 44.9585 199.808 44.9585H188.957V6.77246H200.955C207.215 6.77246 212.015 8.44179 215.458 11.6761C218.901 15.0148 220.674 19.6055 220.674 25.4481ZM212.223 25.6568C212.223 17.4145 208.572 13.3455 201.373 13.3455H197.095V38.1768H200.538C208.363 38.2811 212.223 34.1078 212.223 25.6568Z" fill="black"/>
<path d="M239.922 45.483C235.227 45.483 231.576 44.231 228.863 41.6227C226.255 39.0143 224.898 35.3627 224.898 30.5633C224.898 25.6597 226.15 21.9037 228.55 19.191C230.95 16.4783 234.393 15.2263 238.67 15.2263C242.844 15.2263 245.974 16.374 248.269 18.7737C250.564 21.1733 251.712 24.4077 251.712 28.4767V32.337H232.828C232.932 34.6323 233.558 36.406 234.81 37.658C236.062 38.91 237.836 39.536 240.131 39.536C241.905 39.536 243.574 39.3273 245.139 39.0143C246.704 38.597 248.373 38.0753 250.043 37.2407V43.3963C248.686 44.1267 247.121 44.6483 245.556 44.9613C244.096 45.2743 242.218 45.483 239.922 45.483ZM238.775 20.8603C237.105 20.8603 235.749 21.382 234.81 22.4253C233.871 23.4687 233.349 25.0337 233.141 27.016H244.304C244.304 25.0337 243.783 23.573 242.739 22.4253C241.8 21.382 240.444 20.8603 238.775 20.8603Z" fill="black"/>
<path d="M278.867 36.2982C278.867 39.3238 277.823 41.6192 275.737 43.1842C273.65 44.7492 270.52 45.5838 266.347 45.5838C264.26 45.5838 262.382 45.4795 260.921 45.1665C259.461 44.8535 258 44.4362 256.748 43.9145V37.3415C258.209 38.0718 259.878 38.5935 261.756 39.1152C263.634 39.6368 265.199 39.8455 266.66 39.8455C269.581 39.8455 271.042 39.0108 271.042 37.3415C271.042 36.7155 270.833 36.1938 270.416 35.7765C269.998 35.3592 269.372 34.9418 268.433 34.4202C267.494 33.8985 266.242 33.3768 264.677 32.6465C262.382 31.7075 260.817 30.8728 259.774 30.0382C258.73 29.2035 258 28.3688 257.478 27.3255C256.957 26.2822 256.748 25.0302 256.748 23.4652C256.748 20.8568 257.791 18.8745 259.774 17.4138C261.756 15.9531 264.677 15.3271 268.329 15.3271C271.876 15.3271 275.319 16.0575 278.554 17.6225L276.154 23.3608C274.693 22.7348 273.337 22.2132 272.085 21.7958C270.833 21.3785 269.477 21.1698 268.225 21.1698C265.825 21.1698 264.677 21.7958 264.677 23.0478C264.677 23.7782 265.095 24.4042 265.825 24.9258C266.555 25.4475 268.225 26.1778 270.833 27.2212C273.128 28.1602 274.798 28.9948 275.841 29.8295C276.884 30.6642 277.719 31.6032 278.241 32.6465C278.554 33.5855 278.867 34.8375 278.867 36.2982Z" fill="black"/>
<path d="M291.482 29.102L294.925 24.6156L303.063 15.7473H312.035L300.454 28.3716L312.87 44.9607H303.689L295.238 33.171L291.795 35.8836V44.9607H283.865V4.27063H291.795V22.4246L291.377 29.102H291.482Z" fill="black"/>
</g>
<defs>
<clipPath id="clip0_1827_8239">
<rect width="313" height="57.8007" fill="white"/>
</clipPath>
</defs>
</svg>

<svg width="313" height="58" fill="none" xmlns="http://www.w3.org/2000/svg"><g clip-path="url(#a)"><path d="M48.568 0 42.83 5.738 62.966 25.77 42.83 45.907l5.738 5.634 25.77-25.77L48.569 0Z" fill="#EF443B"/><path d="m-.208 25.803 25.821 25.82 25.821-25.82L25.614-.018-.209 25.803Z" fill="#EF443B"/><path d="m110.727 44.963-2.817-9.077H94.034l-2.817 9.077h-8.764L96.016 6.568h9.912l13.563 38.395h-8.764Zm-4.695-15.86c-2.608-8.242-3.964-12.937-4.277-13.98-.313-1.043-.626-1.982-.731-2.608-.626 2.19-2.19 7.72-4.903 16.589h9.911ZM150.583 44.962h-7.929V27.956c0-2.087-.417-3.651-1.148-4.695-.73-1.043-1.982-1.565-3.547-1.565-2.191 0-3.86.73-4.799 2.191-.939 1.46-1.461 3.965-1.461 7.408v13.772h-7.929V15.854h6.051l1.043 3.756h.418c.939-1.461 2.086-2.505 3.651-3.235s3.339-1.043 5.321-1.043c3.443 0 5.947.939 7.721 2.712 1.774 1.774 2.608 4.487 2.608 7.93v18.988ZM153.877 15.744h8.764l5.53 16.485c.521 1.46.834 3.13.939 5.112h.208c.209-1.773.522-3.443 1.148-5.112l5.425-16.485h8.556l-12.416 32.97c-1.148 3.025-2.713 5.32-4.799 6.886-2.087 1.564-4.591 2.295-7.408 2.295-1.356 0-2.713-.105-4.069-.418v-6.364c.939.209 1.982.313 3.13.313 1.461 0 2.608-.417 3.652-1.252 1.043-.834 1.878-2.19 2.504-3.86l.521-1.46-11.685-29.11ZM220.674 25.448c0 6.26-1.773 11.06-5.321 14.502-3.547 3.444-8.764 5.008-15.545 5.008h-10.851V6.773h11.998c6.26 0 11.06 1.67 14.503 4.904 3.443 3.339 5.216 7.93 5.216 13.772Zm-8.451.209c0-8.242-3.651-12.312-10.85-12.312h-4.278v24.832h3.443c7.825.104 11.685-4.07 11.685-12.52ZM239.922 45.483c-4.695 0-8.346-1.252-11.059-3.86-2.608-2.609-3.965-6.26-3.965-11.06 0-4.903 1.252-8.66 3.652-11.372 2.4-2.713 5.843-3.965 10.12-3.965 4.174 0 7.304 1.148 9.599 3.548 2.295 2.4 3.443 5.634 3.443 9.703v3.86h-18.884c.104 2.295.73 4.069 1.982 5.321 1.252 1.252 3.026 1.878 5.321 1.878 1.774 0 3.443-.209 5.008-.522 1.565-.417 3.234-.939 4.904-1.773v6.155c-1.357.73-2.922 1.252-4.487 1.565-1.46.313-3.338.522-5.634.522Zm-1.147-24.623c-1.67 0-3.026.522-3.965 1.565-.939 1.044-1.461 2.609-1.669 4.591h11.163c0-1.982-.521-3.443-1.565-4.59-.939-1.044-2.295-1.566-3.964-1.566ZM278.867 36.298c0 3.026-1.044 5.321-3.13 6.886-2.087 1.565-5.217 2.4-9.39 2.4-2.087 0-3.965-.105-5.426-.418-1.46-.313-2.921-.73-4.173-1.252v-6.572c1.461.73 3.13 1.252 5.008 1.773 1.878.522 3.443.73 4.904.73 2.921 0 4.382-.834 4.382-2.503 0-.627-.209-1.148-.626-1.566-.418-.417-1.044-.834-1.983-1.356-.939-.522-2.191-1.043-3.756-1.773-2.295-.94-3.86-1.774-4.903-2.609-1.044-.835-1.774-1.67-2.296-2.712-.521-1.044-.73-2.296-.73-3.86 0-2.61 1.043-4.591 3.026-6.052 1.982-1.46 4.903-2.087 8.555-2.087 3.547 0 6.99.73 10.225 2.295l-2.4 5.739a52.849 52.849 0 0 0-4.069-1.565 12.45 12.45 0 0 0-3.86-.626c-2.4 0-3.548.626-3.548 1.878 0 .73.418 1.356 1.148 1.878.73.522 2.4 1.252 5.008 2.295 2.295.94 3.965 1.774 5.008 2.608 1.043.835 1.878 1.774 2.4 2.818.313.939.626 2.19.626 3.651ZM291.482 29.102l3.443-4.486 8.138-8.869h8.972l-11.581 12.625L312.87 44.96h-9.181l-8.451-11.79-3.443 2.713v9.077h-7.93V4.27h7.93v18.154l-.418 6.677h.105Z" fill="#000"/></g><defs><clipPath id="a"><path fill="#fff" d="M0 0h313v57.801H0z"/></clipPath></defs></svg>
